; generated by PrusaSlicer 2.3.0+linux-x64 on 2021-03-07 at 00:55:58 UTC

; 

; external perimeters extrusion width = 0.60mm
; perimeters extrusion width = 0.45mm
; infill extrusion width = 0.45mm
; solid infill extrusion width = 0.45mm
; top infill extrusion width = 0.40mm
; first layer extrusion width = 0.42mm

M201 X1000 Y1000 Z200 E5000 ; sets maximum accelerations, mm/sec^2
M203 X200 Y200 Z8 E60 ; sets maximum feedrates, mm/sec
M204 P1250 R1250 T1250 ; sets acceleration (P, T) and retract acceleration (R), mm/sec^2
M205 X8.00 Y8.00 Z0.40 E5.00 ; sets the jerk limits, mm/sec
M205 S0 T0 ; sets the minimum extruding and travel feed rate, mm/sec
M107 ; disable fan
;TYPE:Custom
G90 ; use absolute coordinates
M83 ; extruder relative mode
M204 S1250 T1250
M104 S215 ; set extruder temp
M140 S60 ; set bed temp
G28 ; home all
G1 Y0 Z1 F100 ; move print head up
M190 S60 ; wait for bed temp
M109 S215 ; wait for extruder temp
G92 E0
G1 E38 F1000; deretract filament
G92 E0
G1 X60 Z0 E9 ; intro line
G1 X100 E12.5 ; intro line
G92 E0
G21 ; set units to millimeters
G90 ; use absolute coordinates
M83 ; use relative distances for extrusion
; Filament gcode
;LAYER_CHANGE
;Z:0.2
;HEIGHT:0.2
;BEFORE_LAYER_CHANGE
;0.2
G1 E-6.00000 F2400.000 ; retract
G1 Z0.075 F10800.000 ; lift Z
G1 Z0.200 ; move to next layer (0)
;AFTER_LAYER_CHANGE
;0.2
G1 Z0.275 ; lift Z
G1 X19.336 Y58.909 ; move to first skirt point
G1 Z0.200 ; restore layer Z
G1 E6.00000 F3000.000 ; unretract
M204 S1250 ; adjust acceleration
;TYPE:Skirt
;WIDTH:0.42
G1 F1800.000
G1 X21.153 Y58.630 E0.05765 ; skirt
G1 X107.368 Y56.124 E2.70435 ; skirt
G1 X188.506 Y56.123 E2.54402 ; skirt
G1 X190.115 Y56.280 E0.05070 ; skirt
G1 X191.659 Y56.741 E0.05051 ; skirt
G1 X193.095 Y57.496 E0.05086 ; skirt
G1 X194.329 Y58.484 E0.04959 ; skirt
G1 X195.319 Y59.634 E0.04756 ; skirt
G1 X196.125 Y61.031 E0.05056 ; skirt
G1 X196.642 Y62.529 E0.04969 ; skirt
G1 X196.869 Y64.143 E0.05112 ; skirt
G1 X196.867 Y145.917 E2.56396 ; skirt
G1 X196.737 Y147.023 E0.03493 ; skirt
G1 X196.483 Y148.039 E0.03281 ; skirt
G1 X196.076 Y149.075 E0.03493 ; skirt
G1 X195.534 Y150.049 E0.03494 ; skirt
G1 X194.912 Y150.891 E0.03281 ; skirt
G1 X194.140 Y151.694 E0.03494 ; skirt
G1 X193.268 Y152.388 E0.03494 ; skirt
G1 X192.389 Y152.920 E0.03221 ; skirt
G1 X191.446 Y153.342 E0.03240 ; skirt
G1 X190.536 Y153.626 E0.02987 ; skirt
G1 X189.600 Y153.804 E0.02989 ; skirt
G1 X188.569 Y153.877 E0.03239 ; skirt
G1 X107.444 Y153.877 E2.54363 ; skirt
G1 X21.185 Y151.371 E2.70571 ; skirt
G1 X20.148 Y151.267 E0.03268 ; skirt
G1 X19.051 Y151.011 E0.03533 ; skirt
G1 X18.004 Y150.612 E0.03512 ; skirt
G1 X17.072 Y150.110 E0.03320 ; skirt
G1 X16.167 Y149.460 E0.03494 ; skirt
G1 X15.344 Y148.681 E0.03553 ; skirt
G1 X14.680 Y147.863 E0.03304 ; skirt
G1 X14.080 Y146.889 E0.03587 ; skirt
G1 X13.658 Y145.946 E0.03240 ; skirt
G1 X13.374 Y145.036 E0.02987 ; skirt
G1 X13.196 Y144.100 E0.02989 ; skirt
G1 X13.123 Y143.076 E0.03219 ; skirt
G1 X13.130 Y66.645 E2.39642 ; skirt
G1 X13.256 Y65.514 E0.03571 ; skirt
G1 X13.506 Y64.495 E0.03289 ; skirt
G1 X13.916 Y63.442 E0.03544 ; skirt
G1 X14.451 Y62.475 E0.03463 ; skirt
G1 X15.080 Y61.619 E0.03332 ; skirt
G1 X15.851 Y60.814 E0.03494 ; skirt
G1 X16.726 Y60.117 E0.03508 ; skirt
G1 X17.611 Y59.580 E0.03245 ; skirt
G1 X18.426 Y59.208 E0.02808 ; skirt
G1 X19.279 Y58.928 E0.02815 ; skirt
G1 E-3.60000 F2400.000 ; retract
;WIPE_START
G1 F8640.000
G1 X21.153 Y58.630 E-0.50083 ; wipe and retract
G1 X27.893 Y58.434 E-1.77917 ; wipe and retract
;WIPE_END
G1 E-0.12000 F2400.000 ; retract
G1 Z0.275 F10800.000 ; lift Z
G1 X179.675 Y109.540 ; move to first perimeter point
G1 Z0.200 ; restore layer Z
G1 E6.00000 F3000.000 ; unretract
;TYPE:Perimeter
G1 F1800.000
G1 X179.812 Y109.215 E0.01106 ; perimeter
G1 X179.981 Y108.905 E0.01106 ; perimeter
G1 X180.180 Y108.614 E0.01106 ; perimeter
G1 X180.407 Y108.344 E0.01106 ; perimeter
G1 X180.659 Y108.097 E0.01106 ; perimeter
G1 X180.935 Y107.877 E0.01106 ; perimeter
G1 X181.231 Y107.686 E0.01106 ; perimeter
G1 X181.545 Y107.525 E0.01106 ; perimeter
G1 X181.873 Y107.396 E0.01106 ; perimeter
G1 X182.213 Y107.301 E0.01106 ; perimeter
G1 X182.560 Y107.240 E0.01106 ; perimeter
G1 X182.912 Y107.213 E0.01106 ; perimeter
G1 X183.264 Y107.222 E0.01106 ; perimeter
G1 X183.614 Y107.266 E0.01106 ; perimeter
G1 X183.958 Y107.344 E0.01106 ; perimeter
G1 X184.293 Y107.457 E0.01106 ; perimeter
G1 X184.614 Y107.602 E0.01106 ; perimeter
G1 X184.919 Y107.778 E0.01106 ; perimeter
G1 X185.206 Y107.984 E0.01106 ; perimeter
G1 X185.470 Y108.217 E0.01106 ; perimeter
G1 X185.710 Y108.476 E0.01106 ; perimeter
G1 X185.923 Y108.757 E0.01106 ; perimeter
G1 X186.107 Y109.058 E0.01106 ; perimeter
G1 X186.260 Y109.376 E0.01106 ; perimeter
G1 X186.381 Y109.707 E0.01106 ; perimeter
G1 X186.470 Y110.057 E0.01130 ; perimeter
G1 X186.534 Y110.574 E0.01636 ; perimeter
G1 X186.533 Y110.927 E0.01105 ; perimeter
G1 X186.498 Y111.277 E0.01105 ; perimeter
G1 X186.428 Y111.623 E0.01106 ; perimeter
G1 X186.325 Y111.960 E0.01106 ; perimeter
G1 X186.188 Y112.285 E0.01106 ; perimeter
G1 X186.019 Y112.595 E0.01106 ; perimeter
G1 X185.820 Y112.886 E0.01106 ; perimeter
G1 X185.593 Y113.156 E0.01106 ; perimeter
G1 X185.341 Y113.403 E0.01106 ; perimeter
G1 X185.065 Y113.623 E0.01106 ; perimeter
G1 X184.769 Y113.814 E0.01106 ; perimeter
G1 X184.455 Y113.975 E0.01106 ; perimeter
G1 X184.127 Y114.104 E0.01106 ; perimeter
G1 X183.787 Y114.199 E0.01106 ; perimeter
G1 X183.440 Y114.260 E0.01106 ; perimeter
G1 X183.088 Y114.287 E0.01106 ; perimeter
G1 X182.736 Y114.278 E0.01106 ; perimeter
G1 X182.386 Y114.234 E0.01106 ; perimeter
G1 X182.042 Y114.156 E0.01106 ; perimeter
G1 X181.707 Y114.043 E0.01106 ; perimeter
G1 X181.386 Y113.898 E0.01106 ; perimeter
G1 X181.081 Y113.722 E0.01106 ; perimeter
G1 X180.794 Y113.516 E0.01106 ; perimeter
G1 X180.530 Y113.283 E0.01106 ; perimeter
G1 X180.290 Y113.024 E0.01106 ; perimeter
G1 X180.077 Y112.743 E0.01106 ; perimeter
G1 X179.893 Y112.442 E0.01106 ; perimeter
G1 X179.740 Y112.124 E0.01106 ; perimeter
G1 X179.619 Y111.793 E0.01106 ; perimeter
G1 X179.530 Y111.443 E0.01130 ; perimeter
G1 X179.466 Y110.926 E0.01636 ; perimeter
G1 X179.467 Y110.573 E0.01105 ; perimeter
G1 X179.502 Y110.223 E0.01105 ; perimeter
G1 X179.572 Y109.877 E0.01106 ; perimeter
G1 X179.658 Y109.597 E0.00918 ; perimeter
G1 X180.018 Y109.708 F10800.000 ; move to first perimeter point
;TYPE:External perimeter
G1 F1800.000
G1 X180.153 Y109.379 E0.01116 ; perimeter
G1 X180.303 Y109.102 E0.00988 ; perimeter
G1 X180.481 Y108.842 E0.00988 ; perimeter
G1 X180.683 Y108.600 E0.00988 ; perimeter
G1 X180.909 Y108.380 E0.00988 ; perimeter
G1 X181.155 Y108.184 E0.00988 ; perimeter
G1 X181.420 Y108.013 E0.00988 ; perimeter
G1 X181.700 Y107.869 E0.00988 ; perimeter
G1 X181.993 Y107.754 E0.00988 ; perimeter
G1 X182.297 Y107.669 E0.00988 ; perimeter
G1 X182.607 Y107.614 E0.00988 ; perimeter
G1 X182.921 Y107.591 E0.00988 ; perimeter
G1 X183.236 Y107.599 E0.00988 ; perimeter
G1 X183.549 Y107.638 E0.00988 ; perimeter
G1 X183.856 Y107.708 E0.00988 ; perimeter
G1 X184.155 Y107.808 E0.00988 ; perimeter
G1 X184.442 Y107.938 E0.00988 ; perimeter
G1 X184.715 Y108.095 E0.00988 ; perimeter
G1 X184.970 Y108.279 E0.00988 ; perimeter
G1 X185.207 Y108.488 E0.00988 ; perimeter
G1 X185.421 Y108.719 E0.00988 ; perimeter
G1 X185.611 Y108.970 E0.00988 ; perimeter
G1 X185.775 Y109.239 E0.00988 ; perimeter
G1 X185.912 Y109.522 E0.00988 ; perimeter
G1 X186.020 Y109.818 E0.00988 ; perimeter
G1 X186.098 Y110.127 E0.00997 ; perimeter
G1 X186.157 Y110.597 E0.01488 ; perimeter
G1 X186.156 Y110.908 E0.00973 ; perimeter
G1 X186.125 Y111.221 E0.00988 ; perimeter
G1 X186.063 Y111.530 E0.00988 ; perimeter
G1 X185.970 Y111.831 E0.00988 ; perimeter
G1 X185.847 Y112.121 E0.00988 ; perimeter
G1 X185.697 Y112.398 E0.00988 ; perimeter
G1 X185.519 Y112.658 E0.00988 ; perimeter
G1 X185.317 Y112.900 E0.00988 ; perimeter
G1 X185.091 Y113.120 E0.00988 ; perimeter
G1 X184.845 Y113.316 E0.00988 ; perimeter
G1 X184.580 Y113.487 E0.00988 ; perimeter
G1 X184.300 Y113.631 E0.00988 ; perimeter
G1 X184.007 Y113.746 E0.00988 ; perimeter
G1 X183.703 Y113.831 E0.00988 ; perimeter
G1 X183.393 Y113.886 E0.00988 ; perimeter
G1 X183.079 Y113.909 E0.00988 ; perimeter
G1 X182.764 Y113.901 E0.00988 ; perimeter
G1 X182.451 Y113.862 E0.00988 ; perimeter
G1 X182.144 Y113.792 E0.00988 ; perimeter
G1 X181.845 Y113.692 E0.00988 ; perimeter
G1 X181.558 Y113.562 E0.00988 ; perimeter
G1 X181.285 Y113.405 E0.00988 ; perimeter
G1 X181.030 Y113.221 E0.00988 ; perimeter
G1 X180.793 Y113.012 E0.00988 ; perimeter
G1 X180.579 Y112.781 E0.00988 ; perimeter
G1 X180.389 Y112.530 E0.00988 ; perimeter
G1 X180.225 Y112.261 E0.00988 ; perimeter
G1 X180.088 Y111.978 E0.00988 ; perimeter
G1 X179.980 Y111.682 E0.00988 ; perimeter
G1 X179.902 Y111.373 E0.00997 ; perimeter
G1 X179.843 Y110.903 E0.01488 ; perimeter
G1 X179.844 Y110.592 E0.00973 ; perimeter
G1 X179.875 Y110.279 E0.00988 ; perimeter
G1 X179.937 Y109.970 E0.00988 ; perimeter
G1 X180.000 Y109.766 E0.00671 ; perimeter
G1 X179.787 Y109.438 F10800.000 ; move inwards before travel
G1 E-3.60000 F2400.000 ; retract
;WIPE_START
G1 F8640.000
G1 X180.153 Y109.379 E-0.10974 ; wipe and retract
G1 X180.303 Y109.102 E-0.08314 ; wipe and retract
G1 X180.481 Y108.842 E-0.08314 ; wipe and retract
G1 X180.683 Y108.600 E-0.08314 ; wipe and retract
G1 X180.909 Y108.380 E-0.08314 ; wipe and retract
G1 X181.155 Y108.184 E-0.08314 ; wipe and retract
G1 X181.420 Y108.013 E-0.08314 ; wipe and retract
G1 X181.700 Y107.869 E-0.08314 ; wipe and retract
G1 X181.993 Y107.754 E-0.08314 ; wipe and retract
G1 X182.297 Y107.669 E-0.08314 ; wipe and retract
G1 X182.607 Y107.614 E-0.08314 ; wipe and retract
G1 X182.921 Y107.591 E-0.08314 ; wipe and retract
G1 X183.236 Y107.599 E-0.08314 ; wipe and retract
G1 X183.549 Y107.638 E-0.08314 ; wipe and retract
G1 X183.856 Y107.708 E-0.08314 ; wipe and retract
G1 X184.155 Y107.808 E-0.08314 ; wipe and retract
G1 X184.442 Y107.938 E-0.08314 ; wipe and retract
G1 X184.715 Y108.095 E-0.08314 ; wipe and retract
G1 X184.970 Y108.279 E-0.08314 ; wipe and retract
G1 X185.207 Y108.488 E-0.08314 ; wipe and retract
G1 X185.421 Y108.719 E-0.08314 ; wipe and retract
G1 X185.611 Y108.970 E-0.08314 ; wipe and retract
G1 X185.775 Y109.239 E-0.08314 ; wipe and retract
G1 X185.912 Y109.522 E-0.08314 ; wipe and retract
G1 X186.020 Y109.818 E-0.08314 ; wipe and retract
G1 X186.098 Y110.127 E-0.08388 ; wipe and retract
G1 X186.141 Y110.469 E-0.09101 ; wipe and retract
;WIPE_END
G1 E-0.12000 F2400.000 ; retract
G1 Z0.275 F10800.000 ; lift Z
G1 X182.254 Y122.544 ; move to first perimeter point
G1 Z0.200 ; restore layer Z
G1 E6.00000 F3000.000 ; unretract
;TYPE:Perimeter
G1 F1800.000
G1 X182.560 Y122.490 E0.00976 ; perimeter
G1 X182.912 Y122.463 E0.01106 ; perimeter
G1 X183.264 Y122.472 E0.01106 ; perimeter
G1 X183.614 Y122.516 E0.01106 ; perimeter
G1 X183.958 Y122.594 E0.01106 ; perimeter
G1 X184.293 Y122.707 E0.01106 ; perimeter
G1 X184.614 Y122.852 E0.01106 ; perimeter
G1 X184.919 Y123.028 E0.01106 ; perimeter
G1 X185.206 Y123.234 E0.01106 ; perimeter
G1 X185.470 Y123.467 E0.01106 ; perimeter
G1 X185.710 Y123.726 E0.01106 ; perimeter
G1 X185.923 Y124.007 E0.01106 ; perimeter
G1 X186.107 Y124.308 E0.01106 ; perimeter
G1 X186.260 Y124.626 E0.01106 ; perimeter
G1 X186.381 Y124.957 E0.01106 ; perimeter
G1 X186.470 Y125.307 E0.01130 ; perimeter
G1 X186.534 Y125.824 E0.01636 ; perimeter
G1 X186.533 Y126.177 E0.01105 ; perimeter
G1 X186.498 Y126.527 E0.01105 ; perimeter
G1 X186.428 Y126.873 E0.01106 ; perimeter
G1 X186.325 Y127.210 E0.01106 ; perimeter
G1 X186.188 Y127.535 E0.01106 ; perimeter
G1 X186.019 Y127.845 E0.01106 ; perimeter
G1 X185.820 Y128.136 E0.01106 ; perimeter
G1 X185.593 Y128.406 E0.01106 ; perimeter
G1 X185.341 Y128.653 E0.01106 ; perimeter
G1 X185.065 Y128.873 E0.01106 ; perimeter
G1 X184.769 Y129.064 E0.01106 ; perimeter
G1 X184.455 Y129.225 E0.01106 ; perimeter
G1 X184.127 Y129.354 E0.01106 ; perimeter
G1 X183.787 Y129.449 E0.01106 ; perimeter
G1 X183.440 Y129.510 E0.01106 ; perimeter
G1 X183.088 Y129.537 E0.01106 ; perimeter
G1 X182.736 Y129.528 E0.01106 ; perimeter
G1 X182.386 Y129.484 E0.01106 ; perimeter
G1 X182.042 Y129.406 E0.01106 ; perimeter
G1 X181.707 Y129.293 E0.01106 ; perimeter
G1 X181.386 Y129.148 E0.01106 ; perimeter
G1 X181.081 Y128.972 E0.01106 ; perimeter
G1 X180.794 Y128.766 E0.01106 ; perimeter
G1 X180.530 Y128.533 E0.01106 ; perimeter
G1 X180.290 Y128.274 E0.01106 ; perimeter
G1 X180.077 Y127.993 E0.01106 ; perimeter
G1 X179.893 Y127.692 E0.01106 ; perimeter
G1 X179.740 Y127.374 E0.01106 ; perimeter
G1 X179.619 Y127.043 E0.01106 ; perimeter
G1 X179.530 Y126.693 E0.01130 ; perimeter
G1 X179.466 Y126.176 E0.01636 ; perimeter
G1 X179.467 Y125.823 E0.01105 ; perimeter
G1 X179.502 Y125.473 E0.01105 ; perimeter
G1 X179.572 Y125.127 E0.01106 ; perimeter
G1 X179.675 Y124.790 E0.01106 ; perimeter
G1 X179.812 Y124.465 E0.01106 ; perimeter
G1 X179.981 Y124.155 E0.01106 ; perimeter
G1 X180.180 Y123.864 E0.01106 ; perimeter
G1 X180.407 Y123.594 E0.01106 ; perimeter
G1 X180.659 Y123.347 E0.01106 ; perimeter
G1 X180.935 Y123.127 E0.01106 ; perimeter
G1 X181.231 Y122.936 E0.01106 ; perimeter
G1 X181.545 Y122.775 E0.01106 ; perimeter
G1 X181.873 Y122.646 E0.01106 ; perimeter
G1 X182.195 Y122.556 E0.01048 ; perimeter
G1 X182.297 Y122.919 F10800.000 ; move to first perimeter point
;TYPE:External perimeter
G1 F1800.000
G1 X182.607 Y122.864 E0.00988 ; perimeter
G1 X182.921 Y122.841 E0.00988 ; perimeter
G1 X183.236 Y122.849 E0.00988 ; perimeter
G1 X183.549 Y122.888 E0.00988 ; perimeter
G1 X183.856 Y122.958 E0.00988 ; perimeter
G1 X184.155 Y123.058 E0.00988 ; perimeter
G1 X184.442 Y123.188 E0.00988 ; perimeter
G1 X184.715 Y123.345 E0.00988 ; perimeter
G1 X184.970 Y123.529 E0.00988 ; perimeter
G1 X185.207 Y123.738 E0.00988 ; perimeter
G1 X185.421 Y123.969 E0.00988 ; perimeter
G1 X185.611 Y124.220 E0.00988 ; perimeter
G1 X185.775 Y124.489 E0.00988 ; perimeter
G1 X185.912 Y124.772 E0.00988 ; perimeter
G1 X186.020 Y125.068 E0.00988 ; perimeter
G1 X186.098 Y125.377 E0.00997 ; perimeter
G1 X186.157 Y125.847 E0.01488 ; perimeter
G1 X186.156 Y126.158 E0.00973 ; perimeter
G1 X186.125 Y126.471 E0.00988 ; perimeter
G1 X186.063 Y126.780 E0.00988 ; perimeter
G1 X185.970 Y127.081 E0.00988 ; perimeter
G1 X185.847 Y127.371 E0.00988 ; perimeter
G1 X185.697 Y127.648 E0.00988 ; perimeter
G1 X185.519 Y127.908 E0.00988 ; perimeter
G1 X185.317 Y128.150 E0.00988 ; perimeter
G1 X185.091 Y128.370 E0.00988 ; perimeter
G1 X184.845 Y128.566 E0.00988 ; perimeter
G1 X184.580 Y128.737 E0.00988 ; perimeter
G1 X184.300 Y128.881 E0.00988 ; perimeter
G1 X184.007 Y128.996 E0.00988 ; perimeter
G1 X183.703 Y129.081 E0.00988 ; perimeter
G1 X183.393 Y129.136 E0.00988 ; perimeter
G1 X183.079 Y129.159 E0.00988 ; perimeter
G1 X182.764 Y129.151 E0.00988 ; perimeter
G1 X182.451 Y129.112 E0.00988 ; perimeter
G1 X182.144 Y129.042 E0.00988 ; perimeter
G1 X181.845 Y128.942 E0.00988 ; perimeter
G1 X181.558 Y128.812 E0.00988 ; perimeter
G1 X181.285 Y128.655 E0.00988 ; perimeter
G1 X181.030 Y128.471 E0.00988 ; perimeter
G1 X180.793 Y128.262 E0.00988 ; perimeter
G1 X180.579 Y128.031 E0.00988 ; perimeter
G1 X180.389 Y127.780 E0.00988 ; perimeter
G1 X180.225 Y127.511 E0.00988 ; perimeter
G1 X180.088 Y127.228 E0.00988 ; perimeter
G1 X179.980 Y126.932 E0.00988 ; perimeter
G1 X179.902 Y126.623 E0.00997 ; perimeter
G1 X179.843 Y126.153 E0.01488 ; perimeter
G1 X179.844 Y125.842 E0.00973 ; perimeter
G1 X179.875 Y125.529 E0.00988 ; perimeter
G1 X179.937 Y125.220 E0.00988 ; perimeter
G1 X180.030 Y124.919 E0.00988 ; perimeter
G1 X180.153 Y124.629 E0.00988 ; perimeter
G1 X180.303 Y124.352 E0.00988 ; perimeter
G1 X180.481 Y124.092 E0.00988 ; perimeter
G1 X180.683 Y123.850 E0.00988 ; perimeter
G1 X180.909 Y123.630 E0.00988 ; perimeter
G1 X181.155 Y123.434 E0.00988 ; perimeter
G1 X181.420 Y123.263 E0.00988 ; perimeter
G1 X181.700 Y123.119 E0.00988 ; perimeter
G1 X181.993 Y123.004 E0.00988 ; perimeter
